icons/vim.svg

<svg xmlns="http://www.w3.org/2000/svg" viewBox="0 0 16 16"><path fill="#6aab20" d="M4.18 13H3.063l-.323-.185V3.268H2.2L2 3.071v-.839L2.216 2H6.5l.266.259v.795l-.207.246H6.09v3.95l4.036-3.95h-.667l-.234-.25v-.836l.216-.2h4.342l.217.218v.786Z" data-iconColor="Vim"/></svg>

<!--
  - The MIT License (MIT)
  -
  - Copyright (c) 2015-2024 Elior "Mallowigi" Boukhobza
  -
  - Permission is hereby granted, free of charge, to any person obtaining a copy
  - of this software and associated documentation files (the "Software"), to deal
  - in the Software without restriction, including without limitation the rights
  - to use, copy, modify, merge, publish, distribute, sublicense, and/or sell
  - copies of the Software, and to permit persons to whom the Software is
  - furnished to do so, subject to the following conditions:
  -
  - The above copyright notice and this permission notice shall be included in all
  - copies or substantial portions of the Software.
  -
  - THE SOFTWARE IS PROVIDED "AS IS", WITHOUT WARRANTY OF ANY KIND, EXPRESS OR
  - IMPLIED, INCLUDING BUT NOT LIMITED TO THE WARRANTIES OF MERCHANTABILITY,
  - FITNESS FOR A PARTICULAR PURPOSE AND NONINFRINGEMENT. IN NO EVENT SHALL THE
  - AUTHORS OR COPYRIGHT HOLDERS BE LIABLE FOR ANY CLAIM, DAMAGES OR OTHER
  - LIABILITY, WHETHER IN AN ACTION OF CONTRACT, TORT OR OTHERWISE, ARISING FROM,
  - OUT OF OR IN CONNECTION WITH THE SOFTWARE OR THE USE OR OTHER DEALINGS IN THE
  - SOFTWARE.
  -
  -->

<svg  xmlns="http://www.w3.org/2000/svg" width="16px" height="16px" viewBox="0 0 16 16">
  <path fill="#6AAB20" data-iconColor="Vim"
        d="M4.18,13H3.063L2.74,12.815V3.268H2.2L2,3.071V2.232L2.216,2H6.5L6.766,2.259V3.054L6.559,3.3H6.09V7.25L10.126,3.3H9.459l-0.234-.25V2.214l0.216-.2h4.342L14,2.232V3.018Z"
  />
</svg>
